Newaita/actions/symbolic/edit-delete-symbolic.svg

<svg height="16" viewBox="0 0 16 16" width="16" xmlns="http://www.w3.org/2000/svg"><g fill="#424242"><path d="m13.890625 4.09375h-11.90625c-.363281 0-.660156-.296875-.660156-.660156v-.664063c0-.363281.296875-.660156.660156-.660156h11.90625c.367187 0 .664063.296875.664063.660156v.664063c0 .363281-.296876.660156-.664063.660156zm0 0"/><path d="m4.300781 3.101562v11.246094c0 .367188-.296875.660156-.664062.660156h-.660157c-.363281 0-.660156-.292968-.660156-.660156v-11.246094c0-.363281.296875-.660156.660156-.660156h.660157c.367187 0 .664062.296875.664062.660156zm0 0"/><path d="m13.5625 2.109375v11.90625h-1.984375v-11.90625zm0 0"/><path d="m12.898438 15.007812h-9.921876c-.363281 0-.660156-.292968-.660156-.660156v-.660156c0-.367188.296875-.664062.660156-.664062h9.921876c.367187 0 .664062.296874.664062.664062v.660156c0 .367188-.296875.660156-.664062.660156zm0 0"/><path d="m8.929688 1.777344v.664062c0 .546875-.445313.992188-.992188.992188s-.992188-.445313-.992188-.992188v-.664062c0-.546875.445313-.992188.992188-.992188s.992188.445313.992188.992188zm0 0"/><path d="m8.433594 5.582031v5.953125c0 .273438-.222656.496094-.496094.496094s-.496094-.222656-.496094-.496094v-5.953125c0-.273437.222656-.496093.496094-.496093s.496094.222656.496094.496093zm0 0"/><path d="m6.285156 5.582031v5.953125c0 .273438-.222656.496094-.496094.496094-.273437 0-.496093-.222656-.496093-.496094v-5.953125c0-.273437.222656-.496093.496093-.496093.273438 0 .496094.222656.496094.496093zm0 0"/><path d="m10.585938 5.582031v5.953125c0 .273438-.222657.496094-.496094.496094-.277344 0-.496094-.222656-.496094-.496094v-5.953125c0-.273437.21875-.496093.496094-.496093.273437 0 .496094.222656.496094.496093zm0 0"/></g></svg>

<?xml version="1.0" encoding="UTF-8"?>
<svg xmlns="http://www.w3.org/2000/svg" xmlns:xlink="http://www.w3.org/1999/xlink" width="16px" height="16px" viewBox="0 0 16 16" version="1.1">
<g id="surface1">
<path style=" stroke:none;fill-rule:nonzero;fill:rgb(25.882354%,25.882354%,25.882354%);fill-opacity:1;" d="M 13.890625 4.09375 L 1.984375 4.09375 C 1.621094 4.09375 1.324219 3.796875 1.324219 3.433594 L 1.324219 2.769531 C 1.324219 2.40625 1.621094 2.109375 1.984375 2.109375 L 13.890625 2.109375 C 14.257812 2.109375 14.554688 2.40625 14.554688 2.769531 L 14.554688 3.433594 C 14.554688 3.796875 14.257812 4.09375 13.890625 4.09375 Z M 13.890625 4.09375 "/>
<path style=" stroke:none;fill-rule:nonzero;fill:rgb(25.882354%,25.882354%,25.882354%);fill-opacity:1;" d="M 4.300781 3.101562 L 4.300781 14.347656 C 4.300781 14.714844 4.003906 15.007812 3.636719 15.007812 L 2.976562 15.007812 C 2.613281 15.007812 2.316406 14.714844 2.316406 14.347656 L 2.316406 3.101562 C 2.316406 2.738281 2.613281 2.441406 2.976562 2.441406 L 3.636719 2.441406 C 4.003906 2.441406 4.300781 2.738281 4.300781 3.101562 Z M 4.300781 3.101562 "/>
<path style=" stroke:none;fill-rule:nonzero;fill:rgb(25.882354%,25.882354%,25.882354%);fill-opacity:1;" d="M 13.5625 2.109375 L 13.5625 14.015625 L 11.578125 14.015625 L 11.578125 2.109375 Z M 13.5625 2.109375 "/>
<path style=" stroke:none;fill-rule:nonzero;fill:rgb(25.882354%,25.882354%,25.882354%);fill-opacity:1;" d="M 12.898438 15.007812 L 2.976562 15.007812 C 2.613281 15.007812 2.316406 14.714844 2.316406 14.347656 L 2.316406 13.6875 C 2.316406 13.320312 2.613281 13.023438 2.976562 13.023438 L 12.898438 13.023438 C 13.265625 13.023438 13.5625 13.320312 13.5625 13.6875 L 13.5625 14.347656 C 13.5625 14.714844 13.265625 15.007812 12.898438 15.007812 Z M 12.898438 15.007812 "/>
<path style=" stroke:none;fill-rule:nonzero;fill:rgb(25.882354%,25.882354%,25.882354%);fill-opacity:1;" d="M 8.929688 1.777344 L 8.929688 2.441406 C 8.929688 2.988281 8.484375 3.433594 7.9375 3.433594 C 7.390625 3.433594 6.945312 2.988281 6.945312 2.441406 L 6.945312 1.777344 C 6.945312 1.230469 7.390625 0.785156 7.9375 0.785156 C 8.484375 0.785156 8.929688 1.230469 8.929688 1.777344 Z M 8.929688 1.777344 "/>
<path style=" stroke:none;fill-rule:nonzero;fill:rgb(25.882354%,25.882354%,25.882354%);fill-opacity:1;" d="M 8.433594 5.582031 L 8.433594 11.535156 C 8.433594 11.808594 8.210938 12.03125 7.9375 12.03125 C 7.664062 12.03125 7.441406 11.808594 7.441406 11.535156 L 7.441406 5.582031 C 7.441406 5.308594 7.664062 5.085938 7.9375 5.085938 C 8.210938 5.085938 8.433594 5.308594 8.433594 5.582031 Z M 8.433594 5.582031 "/>
<path style=" stroke:none;fill-rule:nonzero;fill:rgb(25.882354%,25.882354%,25.882354%);fill-opacity:1;" d="M 6.285156 5.582031 L 6.285156 11.535156 C 6.285156 11.808594 6.0625 12.03125 5.789062 12.03125 C 5.515625 12.03125 5.292969 11.808594 5.292969 11.535156 L 5.292969 5.582031 C 5.292969 5.308594 5.515625 5.085938 5.789062 5.085938 C 6.0625 5.085938 6.285156 5.308594 6.285156 5.582031 Z M 6.285156 5.582031 "/>
<path style=" stroke:none;fill-rule:nonzero;fill:rgb(25.882354%,25.882354%,25.882354%);fill-opacity:1;" d="M 10.585938 5.582031 L 10.585938 11.535156 C 10.585938 11.808594 10.363281 12.03125 10.089844 12.03125 C 9.8125 12.03125 9.59375 11.808594 9.59375 11.535156 L 9.59375 5.582031 C 9.59375 5.308594 9.8125 5.085938 10.089844 5.085938 C 10.363281 5.085938 10.585938 5.308594 10.585938 5.582031 Z M 10.585938 5.582031 "/>
</g>
</svg>
